components/icon/svg/24/transport_ic.svg

<svg xmlns="http://www.w3.org/2000/svg" viewBox="0 0 24 24"><path d="M6 10v2c0 2.8 2.2 5 5 5h2c2.8 0 5-2.2 5-5v-2c0-3.3-2.7-6-6-6s-6 2.7-6 6zm4 4H9c-.6 0-1-.4-1-1v-1h1c.6 0 1 .4 1 1v1zm6-1c0 .6-.4 1-1 1h-1v-1c0-.6.4-1 1-1h1v1zm0-4c0 1.1-1.8 2-4 2s-4-.9-4-2c0-2.2 1.8-4 4-4s4 1.8 4 4z"/><path d="M13 18h-2c-1.9 0-3.7-.9-4.8-2.4.3 1.1.9 2.1 1.8 2.8v2c0 .4.2.6.5.6h7c.3 0 .5-.2.5-.5v-2c.8-.8 1.5-1.7 1.8-2.8-1.1 1.4-2.9 2.3-4.8 2.3z"/></svg>

<?xml version="1.0" encoding="utf-8"?>
<!-- Generator: Adobe Illustrator 24.1.2, SVG Export Plug-In . SVG Version: 6.00 Build 0)  -->
<svg version="1.1" xmlns="http://www.w3.org/2000/svg" xmlns:xlink="http://www.w3.org/1999/xlink" x="0px" y="0px"
	 viewBox="0 0 24 24" style="enable-background:new 0 0 24 24;" xml:space="preserve">
<style type="text/css">
	.st0{fill:#3F434C;}
</style>
<g id="guides">
</g>
<g id="Ebene_1">
	<path class="st0" d="M6,10v2c0,2.8,2.2,5,5,5h2c2.8,0,5-2.2,5-5v-2c0-3.3-2.7-6-6-6S6,6.7,6,10z M10,14H9c-0.6,0-1-0.4-1-1v-1h1
		c0.6,0,1,0.4,1,1V14z M16,13c0,0.6-0.4,1-1,1h-1v-1c0-0.6,0.4-1,1-1h1V13z M16,9L16,9c0,1.1-1.8,2-4,2c-2.2,0-4-0.9-4-2h0
		c0-2.2,1.8-4,4-4C14.2,5,16,6.8,16,9z"/>
	<path class="st0" d="M13,18h-2c-1.9,0-3.7-0.9-4.8-2.4c0.3,1.1,0.9,2.1,1.8,2.8c0,0,0,0,0,0v2C8,20.8,8.2,21,8.5,21h7
		c0.3,0,0.5-0.2,0.5-0.5v-2c0,0,0,0,0,0c0.8-0.8,1.5-1.7,1.8-2.8C16.7,17.1,14.9,18,13,18z"/>
</g>
</svg>
